T: Beeswing, The
M: 4/4
L: 1/8
K: Gmaj
Bb / F / | Bb / Bb / | Eb / Bb / | C7 / F7 / | Bb / F / | Eb / Bb / | Eb / Bb / | F7 / Bb / |
